src/assets/icons/dekoria.svg

<svg width="100" height="28" viewBox="0 0 100 28" fill="none" xmlns="http://www.w3.org/2000/svg">
<g clip-path="url(#clip0_1_258473)">
<path d="M64.47 22.0377L59.7798 15.7113L64.47 9.38482H61.1522L56.4383 15.7113V5.17188H53.8184V22.0347H56.4383V15.7113L61.152 22.0377H64.47Z" fill="#8F90A6"/>
<path d="M37.0928 5.17188V10.4998C36.1192 9.79712 34.9392 9.3848 33.6669 9.3848C30.3289 9.3848 27.623 12.2165 27.623 15.7098C27.623 19.2032 30.3289 22.0347 33.6669 22.0347C34.9392 22.0347 36.1192 21.6222 37.0928 20.9197V22.0347H39.7127V5.17188H37.0928ZM33.6669 19.2948C31.7746 19.2948 30.2408 17.6898 30.2408 15.7096C30.2408 13.7295 31.7746 12.1241 33.6669 12.1241C35.559 12.1241 37.0928 13.7295 37.0928 15.7096C37.0928 17.6898 35.559 19.2948 33.6669 19.2948Z" fill="#8F90A6"/>
<path d="M69.3366 9.38477C65.9988 9.38477 63.293 12.2165 63.293 15.7097C63.293 19.2031 65.9988 22.0346 69.3366 22.0346C72.6746 22.0346 75.3806 19.2029 75.3806 15.7097C75.3806 12.2163 72.6746 9.38477 69.3366 9.38477ZM69.3366 19.2948C67.4446 19.2948 65.9106 17.6898 65.9106 15.7095C65.9106 13.7295 67.4446 12.124 69.3366 12.124C71.2293 12.124 72.7626 13.7295 72.7626 15.7095C72.7626 17.6898 71.2293 19.2948 69.3366 19.2948Z" fill="#8F90A6"/>
<path d="M96.7454 9.38763V10.4998C95.7707 9.79709 94.5914 9.38477 93.3187 9.38477C89.9807 9.38477 87.2754 12.2165 87.2754 15.7097C87.2754 19.2031 89.9807 22.0346 93.3187 22.0346C94.5914 22.0346 95.7707 21.6222 96.7454 20.9197V22.0346H99.3647V9.38763H96.7454ZM93.3187 19.2948C91.4267 19.2948 89.8927 17.6898 89.8927 15.7095C89.8927 13.7295 91.4267 12.124 93.3187 12.124C95.2114 12.124 96.7454 13.7295 96.7454 15.7095C96.7454 17.6898 95.2114 19.2948 93.3187 19.2948Z" fill="#8F90A6"/>
<path d="M78.9084 15.6201H76.2891V22.0347H78.9084V15.6201Z" fill="#8F90A6"/>
<path d="M76.293 15.7111H78.9103C78.911 13.732 80.4443 12.128 82.335 12.1272V9.3877C78.9983 9.38825 76.2936 12.2191 76.293 15.7111Z" fill="#8F90A6"/>
<path d="M86.1649 9.3877H83.5449V22.0346H86.1649V9.3877Z" fill="#8F90A6"/>
<path d="M84.8609 7.92652C85.5876 7.92652 86.1769 7.30984 86.1769 6.54931C86.1769 5.78855 85.5876 5.17188 84.8609 5.17188C84.1343 5.17188 83.5449 5.78855 83.5449 6.54931C83.5449 7.30963 84.1343 7.92652 84.8609 7.92652Z" fill="#8F90A6"/>
<path d="M49.1868 18.241C48.5674 18.892 47.7119 19.2952 46.7646 19.2952C45.2614 19.2952 43.9873 18.2806 43.526 16.8714H47.3012V16.8705H52.7051C52.7719 16.4939 52.8084 16.1065 52.8084 15.7099C52.8084 12.2167 50.1026 9.38477 46.7646 9.38477C43.948 9.38477 41.5815 11.401 40.911 14.1295H40.91V14.1331C40.7865 14.6373 40.7207 15.1651 40.7207 15.7097C40.7207 19.2031 43.4266 22.0346 46.7646 22.0346C49.2421 22.0346 51.3705 20.4739 52.3035 18.2409H49.1868V18.241ZM46.7646 12.1246C48.114 12.1246 49.2779 12.9432 49.8364 14.1296H43.6927C44.2512 12.9432 45.4152 12.1246 46.7646 12.1246Z" fill="#8F90A6"/>
<path d="M0.472656 -0.203125V2.53863V26.0695V28.7797V28.8111H8.12753V26.0695H3.09255V2.53863H21.0288V26.0695H13.3705V22.7724H10.7507V26.0695H10.7474V28.8111H10.7507H13.3705H21.0288H23.6487V26.0695V2.53863V-0.171548V-0.203125" fill="#8F90A6"/>
<path d="M16.6412 8.27462C16.1888 8.36839 15.3634 8.64076 15.3634 8.64076C15.3634 8.64076 15.2142 8.19899 14.7332 7.68383C13.7622 6.64409 12.0686 5.62793 12.0686 5.62793C12.0686 5.62793 10.3751 6.64409 9.40411 7.68383C8.92311 8.19899 8.77385 8.64076 8.77385 8.64076C8.77385 8.64076 7.94852 8.36839 7.49598 8.27462C6.41212 8.05004 5.53906 8.05004 5.53906 8.05004L5.54286 14.5901C5.54286 17.6795 7.98171 21.13 12.0686 21.13C16.1556 21.13 18.5944 17.6795 18.5944 14.5901L18.598 8.05004C18.598 8.05004 17.725 8.05004 16.6412 8.27462ZM11.4402 9.07806C11.7034 8.81811 12.0686 8.56988 12.0686 8.56988C12.0686 8.56988 12.4339 8.81811 12.6971 9.07806C12.9605 9.33802 13.1469 9.63439 13.1469 9.63439C13.1469 9.63439 12.741 9.84843 12.524 10.0153C12.3882 10.12 12.2527 10.2439 12.118 10.3815L12.1182 10.38C12.1182 10.38 11.8396 10.1681 11.6132 10.0153C11.3869 9.86281 10.9904 9.63439 10.9904 9.63439C10.9904 9.63439 11.1768 9.33802 11.4402 9.07806ZM7.98171 10.9921C7.98171 10.9921 9.23725 11.4744 10.0702 11.961C10.2696 12.0774 10.4878 12.2134 10.7048 12.3531C9.52825 14.3956 8.65625 16.8345 8.64925 16.8543C7.98338 15.7739 7.98171 14.584 7.98171 14.584V10.9921ZM16.1556 14.584C16.1556 14.584 16.1556 18.5741 12.0686 18.5741C10.214 18.5741 9.20271 17.7521 8.64938 16.8543C8.66238 16.8297 9.91445 14.4802 14.067 11.9609C14.8923 11.4601 16.1556 10.992 16.1556 10.992V14.584Z" fill="#8F90A6"/>
</g>
<defs>
<clipPath id="clip0_1_258473">
<rect width="100" height="30" fill="white" transform="translate(0 -1)"/>
</clipPath>
</defs>
</svg>

<svg width="100" height="28" fill="none" xmlns="http://www.w3.org/2000/svg"><g clip-path="url(#a)" fill="#8F90A6"><path d="m64.47 22.038-4.69-6.327 4.69-6.326h-3.318l-4.714 6.326V5.171h-2.62v16.864h2.62V15.71l4.714 6.327h3.318ZM37.093 5.172V10.5a5.83 5.83 0 0 0-3.426-1.115c-3.338 0-6.044 2.832-6.044 6.325 0 3.493 2.706 6.325 6.044 6.325a5.831 5.831 0 0 0 3.426-1.115v1.115h2.62V5.172h-2.62Zm-3.426 14.123c-1.892 0-3.426-1.605-3.426-3.585s1.534-3.586 3.426-3.586c1.892 0 3.426 1.605 3.426 3.586 0 1.98-1.534 3.585-3.426 3.585Z"/><path d="M69.337 9.385c-3.338 0-6.044 2.832-6.044 6.325 0 3.493 2.706 6.325 6.044 6.325 3.338 0 6.044-2.832 6.044-6.325 0-3.494-2.706-6.325-6.044-6.325Zm0 9.91c-1.892 0-3.426-1.605-3.426-3.586 0-1.98 1.534-3.585 3.426-3.585 1.892 0 3.426 1.605 3.426 3.585s-1.534 3.586-3.426 3.586ZM96.745 9.388V10.5a5.834 5.834 0 0 0-3.426-1.115c-3.338 0-6.044 2.832-6.044 6.325 0 3.493 2.706 6.325 6.044 6.325a5.835 5.835 0 0 0 3.426-1.115v1.115h2.62V9.388h-2.62Zm-3.426 9.907c-1.892 0-3.426-1.605-3.426-3.586 0-1.98 1.534-3.585 3.426-3.585 1.892 0 3.426 1.605 3.426 3.585s-1.534 3.586-3.426 3.586ZM78.908 15.62H76.29v6.415h2.62V15.62Z"/><path d="M76.293 15.711h2.617c.001-1.979 1.534-3.583 3.425-3.584v-2.74c-3.337.001-6.041 2.832-6.042 6.324ZM86.165 9.388h-2.62v12.647h2.62V9.388ZM84.86 7.927c.728 0 1.317-.617 1.317-1.378 0-.76-.59-1.377-1.316-1.377-.727 0-1.316.617-1.316 1.377s.59 1.378 1.316 1.378ZM49.187 18.241a3.332 3.332 0 0 1-2.422 1.054c-1.504 0-2.778-1.014-3.239-2.424h9.179c.067-.377.103-.764.103-1.161 0-3.493-2.705-6.325-6.043-6.325-2.817 0-5.184 2.016-5.854 4.745h-.001v.003a6.618 6.618 0 0 0-.19 1.577c0 3.493 2.707 6.325 6.045 6.325 2.477 0 4.605-1.561 5.538-3.794h-3.116Zm-2.422-6.116c1.349 0 2.513.818 3.071 2.005h-6.143c.558-1.187 1.722-2.005 3.072-2.005ZM.473-.203V28.81h7.655V26.07H3.093V2.539h17.936v23.53H13.37v-3.297h-2.62v3.298h-.003v2.741H23.65V-.203"/><path d="M16.641 8.275c-.452.093-1.278.366-1.278.366s-.149-.442-.63-.957c-.97-1.04-2.664-2.056-2.664-2.056s-1.694 1.016-2.665 2.056c-.48.515-.63.957-.63.957s-.825-.273-1.278-.366C6.412 8.05 5.539 8.05 5.539 8.05l.004 6.54c0 3.09 2.439 6.54 6.526 6.54s6.525-3.45 6.525-6.54l.004-6.54s-.873 0-1.957.225Zm-5.2.803c.262-.26.628-.508.628-.508s.365.248.628.508c.264.26.45.556.45.556s-.406.214-.623.381a3.96 3.96 0 0 0-.406.367v-.002s-.278-.212-.505-.365c-.226-.152-.623-.38-.623-.38s.187-.297.45-.557Zm-3.46 1.914s1.256.482 2.09.969c.199.116.417.252.634.392-1.177 2.043-2.049 4.481-2.056 4.501-.666-1.08-.667-2.27-.667-2.27v-3.592Zm8.175 3.592s0 3.99-4.087 3.99c-1.855 0-2.866-.822-3.42-1.72.013-.024 1.265-2.374 5.418-4.893.825-.5 2.089-.969 2.089-.969v3.592Z"/></g><defs><clipPath id="a"><path fill="#fff" transform="translate(0 -1)" d="M0 0h100v30H0z"/></clipPath></defs></svg>
